;FLAVOR:Marlin
;TIME:5560
;Filament used: 4.12578m
;Layer height: 0.2
;MINX:59.574
;MINY:59.576
;MINZ:0.2
;MAXX:160.427
;MAXY:160.423
;MAXZ:10
;Generated with Creality Slicer 4.8.2-218
M140 S60
M105
M190 S60
M104 S200
M105
M109 S200
M82 ;absolute extrusion mode

G28 ;Home

G92 E0 ;Reset Extruder
G1 Z2.0 F3000 ;Move Z Axis up
G1 X10.1 Y20 Z0.28 F5000.0 ;Move to start position
G1 X10.1 Y200.0 Z0.28 F1500.0 E15 ;Draw the first line
G1 X10.4 Y200.0 Z0.28 F5000.0 ;Move to side a little
G1 X10.4 Y20 Z0.28 F1500.0 E30 ;Draw the second line
G92 E0 ;Reset Extruder
G1 Z2.0 F3000 ;Move Z Axis up

G92 E0
G92 E0
G1 F2400 E-0.8
;LAYER_COUNT:50
;LAYER:0
M107
G0 F6000 X74.216 Y74.473 Z0.2
;TYPE:SKIRT
G1 F2400 E0
G1 F1200 X74.801 Y73.889 E0.02749
G1 X75.027 Y73.67 E0.03796
G1 X75.379 Y73.339 E0.05403
G1 X76.005 Y72.758 E0.08244
G1 X76.684 Y72.146 E0.11284
G1 X76.89 Y71.965 E0.12196
G1 X77.264 Y71.645 E0.13833
G1 X77.937 Y71.082 E0.16752
G1 X78.598 Y70.542 E0.1959
G1 X78.831 Y70.357 E0.2058
G1 X79.154 Y70.108 E0.21936
G1 X79.903 Y69.542 E0.25059
G1 X80.547 Y69.068 E0.27719
G1 X80.785 Y68.897 E0.28693
G1 X81.329 Y68.52 E0.30895
G1 X81.962 Y68.091 E0.33438
G1 X82.738 Y67.579 E0.3653
G1 X83.111 Y67.341 E0.38002
G1 X83.947 Y66.829 E0.41262
G1 X84.842 Y66.298 E0.44724
G1 X85.059 Y66.173 E0.45557
G1 X85.446 Y65.957 E0.47031
G1 X86.252 Y65.518 E0.50083
G1 X87.022 Y65.112 E0.52978
G1 X87.288 Y64.976 E0.53972
G1 X87.748 Y64.75 E0.55677
G1 X88.518 Y64.381 E0.58517
G1 X89.359 Y63.992 E0.61599
G1 X89.591 Y63.888 E0.62444
G1 X89.964 Y63.727 E0.63795
G1 X90.835 Y63.359 E0.6694
G1 X91.557 Y63.066 E0.69532
G1 X91.823 Y62.962 E0.70482
G1 X92.393 Y62.749 E0.72506
G1 X93.135 Y62.481 E0.7513
G1 X94.066 Y62.158 E0.78407
G1 X94.327 Y62.071 E0.79322
G1 X94.652 Y61.967 E0.80457
G1 X95.507 Y61.704 E0.83433
G1 X96.381 Y61.447 E0.86463
G1 X96.665 Y61.367 E0.87444
G1 X97.113 Y61.249 E0.88985
G1 X97.974 Y61.031 E0.91939
G1 X98.877 Y60.815 E0.95027
G1 X99.131 Y60.757 E0.95893
G1 X99.503 Y60.678 E0.97158
G1 X100.422 Y60.492 E1.00277
G1 X101.3 Y60.328 E1.03248
G1 X101.895 Y60.228 E1.05254
G1 X102.043 Y60.204 E1.05753
G1 X102.911 Y60.075 E1.08672
G1 X103.74 Y59.962 E1.11455
G1 X104.024 Y59.927 E1.12406
G1 X104.594 Y59.865 E1.14313
G1 X105.422 Y59.784 E1.1708
G1 X106.326 Y59.707 E1.20098
G1 X106.596 Y59.687 E1.20998
G1 X106.988 Y59.664 E1.22304
G1 X107.9 Y59.619 E1.25342
G1 X108.789 Y59.587 E1.283
G1 X109.063 Y59.581 E1.29212
G1 X109.547 Y59.576 E1.30822
G1 X110.277 Y59.576 E1.3325
G1 X111.332 Y59.59 E1.36759
G1 X111.876 Y59.608 E1.38569
G1 X112.82 Y59.654 E1.41713
G1 X113.836 Y59.718 E1.45099
G1 X114.115 Y59.739 E1.46029
G1 X114.503 Y59.775 E1.47325
G1 X115.454 Y59.87 E1.50504
G1 X116.303 Y59.967 E1.53346
G1 X116.583 Y60.003 E1.54285
G1 X117.092 Y60.075 E1.55995
G1 X117.956 Y60.206 E1.58901
G1 X118.802 Y60.346 E1.61754
G1 X119.071 Y60.394 E1.62662
G1 X119.543 Y60.484 E1.64261
G1 X120.306 Y60.638 E1.66849
G1 X121.271 Y60.848 E1.70134
G1 X121.519 Y60.904 E1.7098
G1 X121.978 Y61.017 E1.72552
G1 X122.887 Y61.25 E1.75673
G1 X123.69 Y61.467 E1.7844
G1 X123.953 Y61.542 E1.79349
G1 X124.471 Y61.696 E1.81147
G1 X125.283 Y61.947 E1.83974
G1 X126.125 Y62.22 E1.86918
G1 X126.4 Y62.314 E1.87884
G1 X126.796 Y62.454 E1.89281
G1 X127.595 Y62.745 E1.92109
G1 X128.463 Y63.074 E1.95197
G1 X128.69 Y63.163 E1.96008
G1 X129.184 Y63.364 E1.97782
G1 X130.016 Y63.716 E2.00786
G1 X130.788 Y64.055 E2.03591
G1 X131.063 Y64.181 E2.04597
G1 X131.469 Y64.373 E2.06091
G1 X132.246 Y64.749 E2.08962
G1 X133.07 Y65.16 E2.12024
G1 X133.307 Y65.281 E2.12909
G1 X133.712 Y65.497 E2.14436
G1 X134.491 Y65.922 E2.17387
G1 X135.207 Y66.324 E2.20118
G1 X135.454 Y66.467 E2.21068
G1 X135.97 Y66.776 E2.23068
G1 X136.648 Y67.192 E2.25714
G1 X137.449 Y67.698 E2.28865
G1 X137.656 Y67.832 E2.29685
G1 X137.984 Y68.051 E2.30997
G1 X138.723 Y68.556 E2.33974
G1 X139.48 Y69.087 E2.37049
G1 X139.725 Y69.264 E2.38055
G1 X140.099 Y69.542 E2.39605
G1 X140.809 Y70.081 E2.42569
G1 X141.368 Y70.516 E2.44925
G1 X141.613 Y70.712 E2.45969
G1 X142.311 Y71.288 E2.48979
G1 X142.731 Y71.641 E2.50804
G1 X143.354 Y72.178 E2.53539
G1 X143.582 Y72.381 E2.54555
G1 X144.011 Y72.772 E2.56485
G1 X144.61 Y73.327 E2.59201
G1 X145.274 Y73.962 E2.62257
G1 X145.468 Y74.152 E2.6316
G1 X145.754 Y74.441 E2.64512
G1 X146.428 Y75.133 E2.67725
G1 X146.894 Y75.624 E2.69977
G1 X147.109 Y75.857 E2.71031
G1 X147.908 Y76.749 E2.75014
G1 X148.061 Y76.923 E2.75785
G1 X148.637 Y77.594 E2.78726
G1 X148.817 Y77.81 E2.79661
G1 X149.182 Y78.258 E2.81583
G1 X149.591 Y78.769 E2.8376
G1 X150.232 Y79.597 E2.87243
G1 X150.384 Y79.799 E2.88084
G1 X150.691 Y80.217 E2.89809
G1 X151.187 Y80.91 E2.92643
G1 X151.712 Y81.663 E2.95696
G1 X151.858 Y81.878 E2.96561
G1 X152.094 Y82.234 E2.97981
G1 X152.592 Y83.006 E3.01037
G1 X153.042 Y83.724 E3.03855
G1 X153.18 Y83.951 E3.04739
G1 X153.434 Y84.381 E3.064
G1 X153.905 Y85.199 E3.09539
G1 X154.299 Y85.905 E3.12228
G1 X154.426 Y86.138 E3.13111
G1 X154.655 Y86.574 E3.14749
G1 X155.069 Y87.383 E3.17772
G1 X155.467 Y88.188 E3.20758
G1 X155.769 Y88.831 E3.23121
G1 X156.137 Y89.651 E3.26111
G1 X156.482 Y90.446 E3.28993
G1 X156.578 Y90.675 E3.29819
G1 X156.772 Y91.152 E3.31532
G1 X157.088 Y91.96 E3.34417
G1 X157.397 Y92.781 E3.37335
G1 X157.495 Y93.051 E3.3829
G1 X157.655 Y93.514 E3.3992
G1 X157.935 Y94.349 E3.42849
G1 X158.206 Y95.195 E3.45803
G1 X158.29 Y95.472 E3.46766
G1 X158.405 Y95.868 E3.48138
G1 X158.639 Y96.704 E3.51025
G1 X158.845 Y97.473 E3.53673
G1 X158.924 Y97.785 E3.54743
G1 X159.139 Y98.695 E3.57853
G1 X159.25 Y99.179 E3.59505
G1 X159.423 Y99.978 E3.62224
G1 X159.487 Y100.296 E3.63303
G1 X159.581 Y100.805 E3.65025
G1 X159.735 Y101.686 E3.67999
G1 X159.853 Y102.416 E3.70459
G1 X159.899 Y102.73 E3.71514
G1 X160.083 Y104.134 E3.76224
G1 X160.163 Y104.848 E3.78614
G1 X160.192 Y105.146 E3.79609
G1 X160.284 Y106.238 E3.83254
G1 X160.314 Y106.653 E3.84638
G1 X160.364 Y107.463 E3.87337
G1 X160.378 Y107.744 E3.88273
G1 X160.399 Y108.341 E3.9026
G1 X160.415 Y108.99 E3.92419
G1 X160.427 Y110.088 E3.96071
G1 X160.427 Y110.374 E3.97023
G1 X160.42 Y110.801 E3.98443
G1 X160.398 Y111.647 E4.01258
G1 X160.364 Y112.53 E4.04197
G1 X160.35 Y112.796 E4.05083
G1 X160.316 Y113.332 E4.06869
G1 X160.249 Y114.22 E4.09831
G1 X160.173 Y115.068 E4.12663
G1 X160.147 Y115.321 E4.13509
G1 X160.091 Y115.813 E4.15156
G1 X159.977 Y116.707 E4.18153
G1 X159.857 Y117.567 E4.21041
G1 X159.812 Y117.865 E4.22044
G1 X159.737 Y118.31 E4.23545
G1 X159.585 Y119.169 E4.26446
G1 X159.449 Y119.885 E4.2887
G1 X159.386 Y120.192 E4.29912
G1 X159.176 Y121.146 E4.33161
G1 X159.059 Y121.655 E4.34898
G1 X158.877 Y122.412 E4.37488
G1 X158.797 Y122.727 E4.38569
G1 X158.654 Y123.25 E4.40372
G1 X158.424 Y124.063 E4.43182
G1 X158.178 Y124.891 E4.46055
G1 X158.093 Y125.165 E4.4701
G1 X157.915 Y125.709 E4.48913
G1 X157.66 Y126.466 E4.5157
G1 X157.354 Y127.335 E4.54634
G1 X157.159 Y127.855 E4.56482
G1 X156.84 Y128.672 E4.59399
G1 X156.464 Y129.596 E4.62717
G1 X156.35 Y129.865 E4.63688
G1 X156.143 Y130.336 E4.65399
G1 X155.778 Y131.142 E4.68342
G1 X155.393 Y131.962 E4.71355
G1 X155.282 Y132.192 E4.72205
G1 X155.088 Y132.579 E4.73645
G1 X154.687 Y133.36 E4.76565
G1 X154.325 Y134.045 E4.79141
G1 X154.173 Y134.323 E4.80195
G1 X153.751 Y135.068 E4.83043
G1 X153.434 Y135.616 E4.85149
G1 X153.037 Y136.283 E4.8773
G1 X152.878 Y136.543 E4.88744
G1 X152.586 Y137.003 E4.90556
G1 X152.098 Y137.756 E4.93541
G1 X151.624 Y138.467 E4.96383
G1 X151.46 Y138.706 E4.97347
G1 X151.221 Y139.043 E4.98721
G1 X150.713 Y139.749 E5.01614
G1 X150.198 Y140.448 E5.04502
G1 X150.011 Y140.694 E5.05529
G1 X149.687 Y141.108 E5.07278
G1 X149.132 Y141.804 E5.10239
G1 X148.605 Y142.445 E5.12999
G1 X148.434 Y142.647 E5.13879
G1 X148.12 Y143.01 E5.15475
G1 X147.505 Y143.706 E5.18564
G1 X147.039 Y144.219 E5.2087
G1 X146.836 Y144.437 E5.2186
G1 X146.149 Y145.153 E5.25161
G1 X145.784 Y145.527 E5.26899
G1 X145.194 Y146.116 E5.29672
G1 X144.979 Y146.324 E5.30667
G1 X144.624 Y146.659 E5.3229
G1 X143.977 Y147.26 E5.35227
G1 X143.343 Y147.832 E5.38067
G1 X143.13 Y148.019 E5.3901
G1 X142.749 Y148.344 E5.40676
G1 X142.057 Y148.925 E5.43681
G1 X141.423 Y149.442 E5.46402
G1 X141.211 Y149.61 E5.47301
G1 X140.788 Y149.937 E5.4908
G1 X140.112 Y150.447 E5.51896
G1 X139.367 Y150.994 E5.5497
G1 X139.148 Y151.15 E5.55865
G1 X138.802 Y151.391 E5.57267
G1 X138.053 Y151.9 E5.60279
G1 X137.28 Y152.411 E5.63361
G1 X137.059 Y152.554 E5.64236
G1 X136.723 Y152.764 E5.65554
G1 X135.93 Y153.247 E5.68643
G1 X135.192 Y153.684 E5.71495
G1 X134.971 Y153.811 E5.72343
G1 X134.484 Y154.083 E5.74198
G1 X133.768 Y154.471 E5.76907
G1 X132.946 Y154.904 E5.79997
G1 X132.678 Y155.041 E5.80998
G1 X132.275 Y155.239 E5.82492
G1 X131.463 Y155.629 E5.85488
G1 X130.704 Y155.981 E5.8827
G1 X130.454 Y156.093 E5.89181
G1 X130.01 Y156.285 E5.9079
G1 X129.177 Y156.637 E5.93798
G1 X128.41 Y156.947 E5.9655
G1 X128.166 Y157.042 E5.97421
G1 X127.613 Y157.249 E5.99384
G1 X126.851 Y157.526 E6.02081
G1 X125.961 Y157.835 E6.05215
G1 X125.473 Y157.994 E6.06922
G1 X124.608 Y158.262 E6.09934
G1 X123.609 Y158.556 E6.13397
G1 X123.339 Y158.632 E6.1433
G1 X122.899 Y158.748 E6.15844
G1 X122.024 Y158.97 E6.18846
G1 X121.137 Y159.182 E6.21879
G1 X120.582 Y159.303 E6.23769
G1 X119.668 Y159.489 E6.26871
G1 X118.734 Y159.666 E6.30033
G1 X118.448 Y159.716 E6.30998
G1 X117.997 Y159.788 E6.32517
G1 X117.083 Y159.926 E6.35592
G1 X116.259 Y160.038 E6.38358
G1 X115.992 Y160.071 E6.39252
G1 X115.406 Y160.135 E6.41213
G1 X114.575 Y160.217 E6.4399
G1 X113.692 Y160.292 E6.46938
G1 X113.426 Y160.311 E6.47825
G1 X112.979 Y160.337 E6.49314
G1 X112.032 Y160.383 E6.52468
G1 X111.2 Y160.412 E6.55237
G1 X110.944 Y160.418 E6.56088
G1 X110.484 Y160.423 E6.57618
G1 X109.535 Y160.423 E6.60775
G1 X108.715 Y160.411 E6.63502
G1 X108.459 Y160.404 E6.64354
G1 X107.933 Y160.383 E6.66105
G1 X107.082 Y160.34 E6.68939
G1 X106.117 Y160.277 E6.72155
G1 X105.561 Y160.23 E6.74011
G1 X104.736 Y160.149 E6.76768
G1 X103.721 Y160.035 E6.80166
G1 X103.457 Y160.002 E6.8105
G1 X102.877 Y159.921 E6.82998
G1 X102.034 Y159.792 E6.85835
G1 X101.172 Y159.649 E6.88741
G1 X100.469 Y159.518 E6.91119
G1 X99.706 Y159.364 E6.93708
G1 X98.769 Y159.161 E6.96897
G1 X98.524 Y159.105 E6.97733
G1 X97.954 Y158.967 E6.99684
G1 X97.11 Y158.75 E7.02582
G1 X96.308 Y158.533 E7.05345
G1 X96.039 Y158.457 E7.06275
G1 X95.52 Y158.301 E7.08078
G1 X94.709 Y158.05 E7.10901
G1 X93.876 Y157.78 E7.13814
G1 X93.61 Y157.69 E7.14748
G1 X93.203 Y157.546 E7.16184
G1 X92.4 Y157.253 E7.19027
G1 X91.533 Y156.924 E7.22111
G1 X91.297 Y156.832 E7.22953
G1 X90.79 Y156.625 E7.24775
G1 X89.984 Y156.283 E7.27687
G1 X89.212 Y155.944 E7.30491
G1 X88.969 Y155.833 E7.3138
G1 X88.52 Y155.622 E7.3303
G1 X87.754 Y155.251 E7.35861
G1 X86.93 Y154.84 E7.38923
G1 X86.689 Y154.716 E7.39825
G1 X86.277 Y154.497 E7.41377
G1 X85.504 Y154.075 E7.44306
G1 X84.787 Y153.672 E7.47041
G1 X84.552 Y153.536 E7.47945
G1 X84.038 Y153.229 E7.49936
G1 X83.351 Y152.808 E7.52616
G1 X82.55 Y152.302 E7.55767
G1 X82.323 Y152.155 E7.56666
G1 X81.998 Y151.937 E7.57968
G1 X81.27 Y151.439 E7.60902
G1 X80.51 Y150.905 E7.63991
G1 X80.282 Y150.74 E7.64927
G1 X79.9 Y150.457 E7.66508
G1 X79.19 Y149.918 E7.69473
G1 X78.631 Y149.483 E7.71829
G1 X78.386 Y149.287 E7.72873
G1 X77.688 Y148.711 E7.75883
G1 X77.268 Y148.358 E7.77707
G1 X76.645 Y147.821 E7.80443
G1 X76.429 Y147.629 E7.81404
G1 X75.988 Y147.228 E7.83387
G1 X75.389 Y146.673 E7.86103
G1 X74.725 Y146.038 E7.89158
G1 X74.532 Y145.848 E7.90059
G1 X74.233 Y145.547 E7.9147
G1 X73.565 Y144.86 E7.94657
G1 X73.024 Y144.29 E7.97271
G1 X72.824 Y144.074 E7.9825
G1 X72.501 Y143.714 E7.99859
G1 X71.915 Y143.048 E8.0281
G1 X71.328 Y142.362 E8.05812
G1 X71.159 Y142.159 E8.06691
G1 X70.805 Y141.723 E8.08559
G1 X70.296 Y141.084 E8.11276
G1 X69.774 Y140.409 E8.14114
G1 X69.613 Y140.195 E8.15005
G1 X69.31 Y139.782 E8.16709
G1 X68.815 Y139.091 E8.19536
G1 X68.28 Y138.324 E8.22646
G1 X68.134 Y138.109 E8.2351
G1 X67.885 Y137.732 E8.25013
G1 X67.4 Y136.98 E8.27989
G1 X66.957 Y136.273 E8.30764
G1 X66.819 Y136.047 E8.31645
G1 X66.544 Y135.581 E8.33445
G1 X66.06 Y134.739 E8.36675
G1 X65.698 Y134.089 E8.3915
G1 X65.58 Y133.871 E8.39974
G1 X65.324 Y133.385 E8.41801
G1 X64.938 Y132.628 E8.44627
G1 X64.515 Y131.771 E8.47806
G1 X64.399 Y131.529 E8.48698
G1 X64.252 Y131.209 E8.4987
G1 X63.86 Y130.337 E8.5305
G1 X63.5 Y129.505 E8.56065
G1 X63.416 Y129.306 E8.56783
G1 X63.229 Y128.847 E8.58432
G1 X62.918 Y128.053 E8.61268
G1 X62.601 Y127.21 E8.64263
G1 X62.51 Y126.96 E8.65148
G1 X62.327 Y126.433 E8.67004
G1 X62.061 Y125.638 E8.69792
G1 X61.793 Y124.798 E8.72725
G1 X61.713 Y124.535 E8.73639
G1 X61.572 Y124.05 E8.75319
G1 X61.349 Y123.253 E8.78071
G1 X61.11 Y122.355 E8.81162
G1 X61.036 Y122.059 E8.82177
G1 X60.94 Y121.653 E8.83565
G1 X60.734 Y120.746 E8.86658
G1 X60.572 Y119.99 E8.8923
G1 X60.524 Y119.751 E8.9004
G1 X60.415 Y119.175 E8.9199
G1 X60.26 Y118.285 E8.94995
G1 X60.129 Y117.472 E8.97734
G1 X60.089 Y117.203 E8.98638
G1 X60.021 Y116.698 E9.00333
G1 X59.918 Y115.865 E9.03125
G1 X59.816 Y114.945 E9.06204
G1 X59.789 Y114.672 E9.07116
G1 X59.749 Y114.202 E9.08685
G1 X59.687 Y113.365 E9.11476
G1 X59.633 Y112.476 E9.14439
G1 X59.62 Y112.211 E9.15321
G1 X59.601 Y111.666 E9.17135
G1 X59.585 Y111.007 E9.19327
G1 X59.574 Y109.914 E9.22963
G1 X59.574 Y109.681 E9.23738
G1 X59.581 Y109.183 E9.25394
G1 X59.604 Y108.313 E9.28289
G1 X59.64 Y107.405 E9.31311
G1 X59.653 Y107.151 E9.32157
G1 X59.683 Y106.679 E9.3373
G1 X59.75 Y105.8 E9.36662
G1 X59.826 Y104.937 E9.39544
G1 X59.857 Y104.637 E9.40547
G1 X59.914 Y104.15 E9.42178
G1 X60.023 Y103.292 E9.45054
G1 X60.142 Y102.44 E9.47916
G1 X60.186 Y102.149 E9.48895
G1 X60.275 Y101.623 E9.50669
G1 X60.428 Y100.765 E9.53568
G1 X60.587 Y99.935 E9.56379
G1 X60.639 Y99.681 E9.57241
G1 X60.742 Y99.208 E9.58851
G1 X60.94 Y98.344 E9.61799
G1 X61.119 Y97.599 E9.64347
G1 X61.204 Y97.271 E9.65474
G1 X61.363 Y96.69 E9.67478
G1 X61.574 Y95.951 E9.70034
G1 X61.842 Y95.05 E9.73161
G1 X61.923 Y94.789 E9.74069
G1 X62.072 Y94.332 E9.75668
G1 X62.353 Y93.498 E9.78595
G1 X62.618 Y92.744 E9.81254
G1 X62.711 Y92.491 E9.8215
G1 X62.917 Y91.95 E9.84075
G1 X63.216 Y91.191 E9.86789
G1 X63.552 Y90.367 E9.89748
G1 X63.667 Y90.095 E9.90731
G1 X63.876 Y89.622 E9.92451
G1 X64.228 Y88.845 E9.95288
G1 X64.581 Y88.091 E9.98057
G1 X64.704 Y87.836 E9.98998
G1 X64.944 Y87.357 E10.0078
G1 X65.329 Y86.61 E10.03575
G1 X65.749 Y85.819 E10.06554
G1 X65.878 Y85.584 E10.07446
G1 X66.104 Y85.183 E10.08977
G1 X66.55 Y84.411 E10.11942
G1 X66.941 Y83.754 E10.14485
G1 X67.103 Y83.491 E10.15512
G1 X67.482 Y82.893 E10.17867
G1 X67.885 Y82.271 E10.20332
G1 X68.355 Y81.563 E10.23159
G1 X68.523 Y81.317 E10.2415
G1 X68.764 Y80.975 E10.25541
G1 X69.305 Y80.225 E10.28617
G1 X69.842 Y79.5 E10.31618
G1 X70.016 Y79.271 E10.32574
G1 X70.325 Y78.876 E10.34242
G1 X70.868 Y78.196 E10.37137
G1 X71.395 Y77.555 E10.39897
G1 X71.569 Y77.349 E10.40793
G1 X71.924 Y76.939 E10.42597
G1 X72.497 Y76.291 E10.45474
G1 X72.966 Y75.775 E10.47793
G1 X73.182 Y75.544 E10.48845
G1 X74.064 Y74.628 E10.53075
G1 X74.216 Y74.473 E10.53797
G0 F6000 X74.499 Y74.756
G1 F1200 X75.084 Y74.172 E10.56546
G1 X75.302 Y73.961 E10.57555
G1 X75.651 Y73.632 E10.5915
G1 X76.273 Y73.055 E10.61972
G1 X76.952 Y72.443 E10.65013
G1 X77.151 Y72.269 E10.65892
G1 X77.522 Y71.952 E10.67515
G1 X78.19 Y71.392 E10.70414
G1 X78.851 Y70.852 E10.73253
G1 X79.076 Y70.673 E10.74209
G1 X79.396 Y70.427 E10.75552
G1 X80.14 Y69.864 E10.78655
G1 X80.784 Y69.39 E10.81314
G1 X81.014 Y69.225 E10.82256
G1 X81.554 Y68.851 E10.84441
G1 X82.182 Y68.425 E10.86965
G1 X82.958 Y67.913 E10.90057
G1 X83.325 Y67.679 E10.91504
G1 X84.276 Y67.098 E10.95211
G1 X85.046 Y66.642 E10.98187
G1 X85.522 Y66.372 E11.00008
G1 X86.306 Y65.943 E11.0298
G1 X87.209 Y65.466 E11.06377
G1 X87.465 Y65.335 E11.07333
G1 X87.922 Y65.11 E11.09027
G1 X88.686 Y64.744 E11.11845
G1 X89.527 Y64.355 E11.14927
G1 X90.027 Y64.135 E11.16744
G1 X90.838 Y63.791 E11.19674
G1 X91.707 Y63.437 E11.22795
G1 X91.964 Y63.337 E11.23712
G1 X92.53 Y63.125 E11.25722
G1 X93.266 Y62.859 E11.28325
G1 X94.197 Y62.536 E11.31603
